X:7
T:Spinning Jenny
C:Skyclad
D:Tracks from the wilderness
O:Ireland - \'Eire
Z:<anamnese@laposte.net> -- http://anamnese.fr.st
M:4/4
L:1/8
Q:1/4=130
K:D
.B2B2 (3ABe B2 | (3efg (3fed (3cBA B>A |
.B2B2 (3ABe c2 | (3efg (3fed (3cBA B>A, |
B,2B,2 (3FED E2 | (3FGE (3FAB (3dcA B>A |
.B2B2 (3ABe c2 | (3efg (3fed (3cBA B>A :|
